X: 1
T: Back Hill, The
M: 6/8
L: 1/8
R: jig
K: Amaj
AAA c2B|cAf ecA|BBB dcB|cAF FEF|
AAA c2B|cAf ecA|BBB dcB|cAA AEF:|
AAA czB|cAf ecA|BcA Bce|faa fec|
AAA czB|cAf ecA|BBB dcB|cAA AEF:|
